X: 1463
T: A Moonlight Ramble
M:C|
L:1/8
N:"collected by McNamara"
B:O'Neill's 1463
Z:"Transcribed by Bob Safranek, rjs@gsp.org"
K:C
(g"   Sign"f)|e>c ((3{d}cBc) G>E ((3{F}EDE) | Dd{e}d^c ~d3 f |\
               ec ((3{d}cBc) GFED | CcBd "    Fine"c2:|
(cf) | ecgc acgc | Ad{e}d^c ~d3 f |    ecgc    acgc | GcBd ~c3 f |
       ecgc acgc | Ad{e}d^c ~d3 f | ((3efg) ag fedc | GcBd  ceg"   Sign"f |]


